X: 101
T: Jamie Moir of Glasgow
T: Glasgow Caledonian Strathspey and Reel Society
C: Bert Murray
R: reel
B: Bert Murray's "Bon Accord Collection" 1999 p.10
%
N: (Glasgow Caledonian Strathspey and Reel Society)
Z: 2011 John Chambers <jc:trillian.mit.edu>
M: C|
L: 1/8
K: A
(uED) |\
C2(EA) cBAF | E2C2 C2E2 | FDFA EAce | dcBA B2(ED) |
C2(EA) cBAF | E2A,2 C2E2 | FDFA GBEd | c2A2 A2 ||
(ucB) |\
A2(ce) aece | d2(fa) eAce | faea ceAc | d2B2 B2(cB) |
A2(ce) agae | fdfa eAce | faec dfBe | c2A2 A2 |]

%%sep 2 1 500

